icons/police-car-fill.svg

<svg viewBox="0 0 24 24" fill="currentColor" xmlns="http://www.w3.org/2000/svg"><path d="M22 13.5V21C22 21.5523 21.5523 22 21 22H20C19.4477 22 19 21.5523 19 21V20H5V21C5 21.5523 4.55228 22 4 22H3C2.44772 22 2 21.5523 2 21V13.5L0.757464 13.1894C0.312297 13.0781 0 12.6781 0 12.2192V11.5C0 11.2239 0.223858 11 0.5 11H2.42857L4.4805 6.21216C4.79566 5.47679 5.51874 5 6.31879 5H8V3H11V5H13V3H16V5H17.6812C18.4813 5 19.2043 5.47679 19.5195 6.21216L21.5714 11H23.5C23.7761 11 24 11.2239 24 11.5V12.2192C24 12.6781 23.6877 13.0781 23.2425 13.1894L22 13.5ZM4 15V17C4 17.5523 4.44772 18 5 18H8.24496C8.3272 18 8.40818 17.9797 8.4807 17.9409C8.72418 17.8107 8.81602 17.5078 8.68582 17.2643L8.68588 17.2643C7.87868 15.7548 6.31672 15 4 15ZM20 15C17.6833 15 16.1213 15.7548 15.3141 17.2643L15.3142 17.2643C15.184 17.5078 15.2758 17.8107 15.5193 17.9409C15.5918 17.9797 15.6728 18 15.755 18H19C19.5523 18 20 17.5523 20 17V15ZM6 7L4.54856 10.6286C4.50131 10.7467 4.47703 10.8728 4.47703 11C4.47703 11.5523 4.92475 12 5.47703 12H18.523C18.6502 12 18.7762 11.9757 18.8944 11.9285C19.4071 11.7234 19.6566 11.1414 19.4514 10.6286L18 7H6Z"/></svg>

<svg xmlns="http://www.w3.org/2000/svg" viewBox="0 0 24 24">
    <g>
        <path fill="none" d="M0 0h24v24H0z"/>
        <path d="M22 13.5V21a1 1 0 0 1-1 1h-1a1 1 0 0 1-1-1v-1H5v1a1 1 0 0 1-1 1H3a1 1 0 0 1-1-1v-7.5l-1.243-.31A1 1 0 0 1 0 12.22v-.72a.5.5 0 0 1 .5-.5h1.929L4.48 6.212A2 2 0 0 1 6.319 5H8V3h3v2h2V3h3v2h1.681a2 2 0 0 1 1.838 1.212L21.571 11H23.5a.5.5 0 0 1 .5.5v.72a1 1 0 0 1-.757.97L22 13.5zM4 15v2a1 1 0 0 0 1 1h3.245a.5.5 0 0 0 .44-.736C7.88 15.754 6.318 15 4 15zm16 0c-2.317 0-3.879.755-4.686 2.264a.5.5 0 0 0 .441.736H19a1 1 0 0 0 1-1v-2zM6 7l-1.451 3.629A1 1 0 0 0 5.477 12h13.046a1 1 0 0 0 .928-1.371L18 7H6z"/>
    </g>
</svg>
